projectidx.svg

<?xml version="1.0" encoding="UTF-8"?>
<svg viewBox="0 0 24 24" version="1.1" xmlns="http://www.w3.org/2000/svg" xmlns:xlink="http://www.w3.org/1999/xlink">
    <title>Project IDX</title>
    <g id="idx" transform="translate(-0.0005, 0)" fill-rule="nonzero">
        <path d="M1.7145,20.571 L11.1195,20.571 C12.0663922,20.571 12.834,21.3386078 12.834,22.2855 C12.834,23.2323922 12.0663922,24 11.1195,24 L1.7145,24 C0.767607796,24 -8.8817842e-16,23.2323922 -8.8817842e-16,22.2855 C-8.8817842e-16,21.3386078 0.767607796,20.571 1.7145,20.571 Z" fill="#8964E8"></path>
        <path d="M12.7985,15.428 L14.6195,15.428 C15.5663922,15.428 16.334,16.1956078 16.334,17.1425 C16.334,18.0893922 15.5663922,18.857 14.6195,18.857 L12.7985,18.857 C11.8516078,18.857 11.084,18.0893922 11.084,17.1425 C11.084,16.1956078 11.8516078,15.428 12.7985,15.428 L12.7985,15.428 Z M5.7985,15.429 L7.6195,15.429 C8.56611606,15.429 9.3335,16.1963839 9.3335,17.143 C9.3335,18.0896161 8.56611606,18.857 7.6195,18.857 L5.7985,18.857 C4.85188394,18.857 4.0845,18.0896161 4.0845,17.143 C4.0845,16.1963839 4.85188394,15.429 5.7985,15.429 Z" fill="#17B877"></path>
        <path d="M9.8815,10.286 L14.0365,10.286 C14.9831161,10.286 15.7505,11.0533839 15.7505,12 C15.7505,12.9466161 14.9831161,13.714 14.0365,13.714 L9.8805,13.714 C9.26814677,13.714 8.70230904,13.3873135 8.39613242,12.857 C8.08995579,12.3266866 8.08995579,11.6733134 8.39613242,11.143 C8.70230904,10.6126865 9.26814677,10.286 9.8805,10.286 L9.8815,10.286 Z M19.2145,10.286 L19.2865,10.286 C20.2331161,10.286 21.0004999,11.0533839 21.0004999,12 C21.0004999,12.9466161 20.2331161,13.714 19.2865,13.714 L19.2145,13.714 C18.6021468,13.714 18.036309,13.3873135 17.7301324,12.857 C17.4239558,12.3266866 17.4239558,11.6733134 17.7301324,11.143 C18.036309,10.6126865 18.6021468,10.286 19.2145,10.286 Z" fill="#FFA23E"></path>
        <path d="M5.7985,5.143 L15.2025,5.143 C16.1491161,5.143 16.9165,5.91038394 16.9165,6.857 C16.9165,7.80361606 16.1491161,8.571 15.2025,8.571 L5.7985,8.571 C4.85188394,8.571 4.0845,7.80361606 4.0845,6.857 C4.0845,5.91038394 4.85188394,5.143 5.7985,5.143 Z" fill="#25A6E9"></path>
        <path d="M6.9645,0 L11.1195,0 C12.0663922,0 12.834,0.767607796 12.834,1.7145 C12.834,2.6613922 12.0663922,3.429 11.1195,3.429 L6.9645,3.429 C6.0176078,3.429 5.25,2.6613922 5.25,1.7145 C5.25,0.767607796 6.0176078,0 6.9645,0 Z M1.7145,0 L1.7865,0 C2.7333922,0 3.501,0.767607796 3.501,1.7145 C3.501,2.6613922 2.7333922,3.429 1.7865,3.429 L1.7145,3.429 C0.767607796,3.429 -8.8817842e-16,2.6613922 -8.8817842e-16,1.7145 C-8.8817842e-16,0.767607796 0.767607796,0 1.7145,0 Z" fill="#8964E8"></path>
    </g>
</svg>

<svg viewBox="0 0 24 24" xmlns="http://www.w3.org/2000/svg"><path d="M1.714 20.571h9.405a1.715 1.715 0 0 1 0 3.429H1.714a1.715 1.715 0 0 1 0-3.429Z" fill="#8964E8"/><path d="M12.798 15.428h1.821a1.715 1.715 0 0 1 0 3.429h-1.821a1.715 1.715 0 0 1 0-3.429Zm-7 .001h1.821a1.714 1.714 0 1 1 0 3.428H5.798a1.714 1.714 0 1 1 0-3.428Z" fill="#17B877"/><path d="M9.881 10.286h4.155a1.714 1.714 0 1 1 0 3.428H9.88a1.714 1.714 0 1 1 0-3.428h.001Zm9.333 0h.072a1.714 1.714 0 1 1 0 3.428h-.072a1.714 1.714 0 1 1 0-3.428Z" fill="#FFA23E"/><path d="M5.798 5.143h9.404a1.714 1.714 0 1 1 0 3.428H5.798a1.714 1.714 0 0 1 0-3.428Z" fill="#25A6E9"/><path d="M6.964 0h4.155a1.715 1.715 0 0 1 0 3.429H6.964a1.715 1.715 0 0 1 0-3.429Zm-5.25 0h.072a1.715 1.715 0 0 1 0 3.429h-.072a1.715 1.715 0 0 1 0-3.429Z" fill="#8964E8"/></svg>
